icons/list.svg

<svg xmlns="http://www.w3.org/2000/svg" width="24" height="24" viewBox="0 0 24 24">
  <path d="M19.5,18 C20.3284271,18 21,18.6715729 21,19.5 C21,20.3284271 20.3284271,21 19.5,21 L4.5,21 C3.67157288,21 3,20.3284271 3,19.5 C3,18.6715729 3.67157288,18 4.5,18 L19.5,18 Z M19.5,13 C20.3284271,13 21,13.6715729 21,14.5 C21,15.3284271 20.3284271,16 19.5,16 L4.5,16 C3.67157288,16 3,15.3284271 3,14.5 C3,13.6715729 3.67157288,13 4.5,13 L19.5,13 Z M19.5,8 C20.3284271,8 21,8.67157288 21,9.5 C21,10.3284271 20.3284271,11 19.5,11 L4.5,11 C3.67157288,11 3,10.3284271 3,9.5 C3,8.67157288 3.67157288,8 4.5,8 L19.5,8 Z M19.5,3 C20.3284271,3 21,3.67157288 21,4.5 C21,5.32842712 20.3284271,6 19.5,6 L4.5,6 C3.67157288,6 3,5.32842712 3,4.5 C3,3.67157288 3.67157288,3 4.5,3 L19.5,3 Z"/>
</svg>

<svg xmlns="http://www.w3.org/2000/svg" viewBox="0 0 24 24">
  <path d="M19.5 18a1.5 1.5 0 0 1 0 3h-15a1.5 1.5 0 0 1 0-3h15zm0-5a1.5 1.5 0 0 1 0 3h-15a1.5 1.5 0 0 1 0-3h15zm0-5a1.5 1.5 0 0 1 0 3h-15a1.5 1.5 0 0 1 0-3h15zm0-5a1.5 1.5 0 0 1 0 3h-15a1.5 1.5 0 0 1 0-3h15z"/>
</svg>
